icons/archive-drawer-fill.svg

<svg viewBox="0 0 24 24" fill="currentColor" xmlns="http://www.w3.org/2000/svg"><path d="M3 13H21V21.0025C21 21.5534 20.5551 22 20.0066 22H3.9934C3.44476 22 3 21.5537 3 21.0025V13ZM3 2.99754C3 2.44662 3.44495 2 3.9934 2H20.0066C20.5552 2 21 2.44631 21 2.99754V11H3V2.99754ZM9 5V7H15V5H9ZM9 16V18H15V16H9Z"/></svg>

<svg xmlns="http://www.w3.org/2000/svg" viewBox="0 0 24 24">
    <g>
        <path fill="none" d="M0 0h24v24H0z"/>
        <path d="M3 13h18v8.002c0 .551-.445.998-.993.998H3.993A.995.995 0 0 1 3 21.002V13zM3 2.998C3 2.447 3.445 2 3.993 2h16.014c.548 0 .993.446.993.998V11H3V2.998zM9 5v2h6V5H9zm0 11v2h6v-2H9z"/>
    </g>
</svg>
